X:1
T:Title
%%score ( 1 2 3 ) { 4 | 5 }
L:1/8
Q:1/4=115
M:4/4
K:E
V:1 treble nm="Grand Piano, Staff 1"
V:2 treble 
V:3 treble 
V:4 bass nm="Choir Pad, Fairfield, SMD"
V:5 bass 
V:1
 E2 [EB]2 [Ge]2 [Fd]2 | [Dc]2 [EB]6 | B2 z2 z4 | .G2 z2 z4 | E2 [EG]2 [E^A]2 [DB]2 | %5
w: By~Peter~La~Trobe~(1795\-1863) * * *|||||
 [DB]2 [Gc]2 [Fd]2 [Ee]2 | z8 | c2 z2 z4 | [DB]2 [FA]2 [^EG]2 [Fc]2 | [^EB]2 [FA]6 | %10
w: |||||
 [CA]2 [DA]2 [EG]2 [B,F]2 | E2 [DB]6 | [DB]2 [Ec]2 [Fd]2 [Ee]2 | [EG]2 [EA]2 [GB]2 [Ac]2 | %14
w: ||||
 [Dc]2 [EB]2 EF [EG]2 | [DF]2 E6- | E2 z2 z4 |] %17
w: |||
V:2
 x8 | x8 | B,C [DA]2 [EG]2 [EF]2 | D-[DA] [EG]6 | x8 | x8 | [Ee]2 [Ee]2 [Fd]2 d2 | z E [DB]6 | x8 | %9
 x8 | x8 | x8 | x8 | x8 | x8 | x8 | x8 |] %17
V:3
 x8 | x8 | x8 | x8 | x8 | x8 | z4 z2 F2- | F z z2 z4 | x8 | x8 | x8 | x8 | x8 | x8 | x8 | x8 | %16
 x8 |] %17
V:4
 G,2 B,2 G,2 A,2 | A,2 B,6 | B,2 B,2 B,2 C2 | B,2 B,6 | G,2 B,2 C2 B,2 | B,2 G,2 G,2 G,2 | %6
 CB, ^A,2 B,2 B,2 | ^A,2 B,6 | B,2[K:treble] C2 C2 C2 | C2 C6 | A,2 B,2 B,2 B,2 | ^A,2 B,6 | %12
 B,2 B,2 B,2 B,2 | B,2 A,2 =D2 C2 | F,2 G,2 C2 B,2 | A,2 G,6- | G,2 z2 z4 |] %17
V:5
 E,2 G,2 E,2 F,2 | F,2 G,6 | G,2 F,2 E,2 A,,2 | B,,2 E,6 | E,2 E,2 C,2 G,2 | G,2 E,2 D,2 C,2 | %6
 C,2 C,2 D,E, F,2 | F,2 B,,6 | G,2 z2 B,2 A,2 | G,2 F,6 | F,2 F,2 E,2 D,2 | C,2 B,,6 | %12
 B,,2 z2 A,2 G,2 | E,=D, C,2 B,,2 A,,2 | A,,2 G,,2 A,,2 B,,2 | B,,2 E,6- | E,2 z2 z4 |] %17

